packages/elements/bolt-icon/src/svgs/menu.svg

<svg enable-background="new 0 0 32 32" viewBox="0 0 32 32" xmlns="http://www.w3.org/2000/svg"><g clip-rule="evenodd" fill="#151619" fill-rule="evenodd" transform="translate(2 4)"><path d="m28.4 10.4h-28.8c-.9 0-1.6.7-1.6 1.6s.7 1.6 1.6 1.6h28.8c.9 0 1.6-.7 1.6-1.6s-.7-1.6-1.6-1.6"/><path d="m-.4 2.4h28.8c.9 0 1.6-.7 1.6-1.6s-.7-1.6-1.6-1.6h-28.8c-.9 0-1.6.7-1.6 1.6s.7 1.6 1.6 1.6"/><path d="m28.4 21.6h-28.8c-.9 0-1.6.7-1.6 1.6s.7 1.6 1.6 1.6h28.8c.9 0 1.6-.7 1.6-1.6s-.7-1.6-1.6-1.6"/></g></svg>

<?xml version="1.0" encoding="utf-8"?>
<!-- Generator: Adobe Illustrator 25.2.0, SVG Export Plug-In . SVG Version: 6.00 Build 0)  -->
<svg version="1.1" id="Layer_1" xmlns="http://www.w3.org/2000/svg" xmlns:xlink="http://www.w3.org/1999/xlink" x="0px" y="0px"
	 viewBox="0 0 32 32" style="enable-background:new 0 0 32 32;" xml:space="preserve">
<style type="text/css">
	.st0{fill-rule:evenodd;clip-rule:evenodd;fill:#151619;}
</style>
<g>
	<g transform="translate(2 4)">
		<path class="st0" d="M28.4,10.4H-0.4C-1.3,10.4-2,11.1-2,12s0.7,1.6,1.6,1.6h28.8c0.9,0,1.6-0.7,1.6-1.6S29.3,10.4,28.4,10.4"/>
		<path class="st0" d="M-0.4,2.4h28.8c0.9,0,1.6-0.7,1.6-1.6s-0.7-1.6-1.6-1.6H-0.4C-1.3-0.8-2-0.1-2,0.8S-1.3,2.4-0.4,2.4"/>
		<path class="st0" d="M28.4,21.6H-0.4c-0.9,0-1.6,0.7-1.6,1.6c0,0.9,0.7,1.6,1.6,1.6h28.8c0.9,0,1.6-0.7,1.6-1.6
			C30,22.3,29.3,21.6,28.4,21.6"/>
	</g>
</g>
</svg>
